!!!!SEGMENT: 028-1-BH-014.krn
!!!COM: Chopin, Fryderyk
!!!OTL: No. 14.
!!!OPS: Op. 28
!!!PTL: Vingt-quatre | PRÉLUDES | pour le Piano |
!!!PPR: Breitkopf & Härtel
!!!PPP: Leipzig
!!!AGN: Prelude
!!!NIFC-rismID: 1001013137
!!!NIFC-shelfmark: PL-Wbfc 4372/n
!!!OMD: All°.
**kern	**kern	**dynam
*part1	*part1	*part1
*staff2	*staff1	*
*clefF4	*clefG2	*
*I"N|o. 14.	*	*
*k[b-e-a-d-g-c-]	*k[b-e-a-d-g-c-]	*
*e-:	*e-:	*
*M2/2	*M2/2	*
*met(c|)	*met(c|)	*
*MM180	*MM180	*
=1	=1	=1
*Xtuplet	*Xtuplet	*
!	!LO:TX:a:t=P:"pesante" under upper staff and crescendo and diminuendo on the staff:problem	!
!	!LO:TX:i:B:t=pesante	!
12EE-L	12E-<L	<
12BB-	12B-<	.
12GG-J	12G-<J	.
12C-L	12c-<L	.
12EE-	12E-<	.
12C-J	12c-<J	[
12DDnL	12Dn<L	>
12C-	12c-<	.
12FFJ	12F<J	.
12BB-L	12B-<L	.
12DD	12D<	.
12BB-J	12B-<J	]
=2	=2	=2
12EE-L	12E-<L	.
12BB-	12B-<	.
12GG-J	12G-<J	.
12C-L	12c-<L	.
12EE-	12E-<	.
12C-J	12c-<J	.
12DDnL	12Dn<L	.
12C-	12c-<	.
12FFJ	12F<J	.
12BB-L	12B-<L	.
12DD	12D<	.
12BB-J	12B-<J	.
=3	=3	=3
*	*	*above
12EE-L	12E-<L	<
12BB-	12B-<	.
12GG-J	12G-<J	.
12C-L	12c-<L	.
12EE-	12E-<	.
12CnJ	12cn<J	.
12FFL	12F<L	.
12C	12c<	.
12FFJ	12A-<J	.
12E-L<	12e-L	.
12BB--	12B--<	.
12D-J	12e-J	.
!!LO:LB:g=original
=4	=4	=4
12GG-L	12G-<L	.
12D-	12d-<	.
12BB-XJ	12B-X<J	.
12E-L	12e-L	.
12GG-	12G-<	.
12EnJ	12enJ	.
12AAnL<	12An<L	.
12E	12e	.
12CnJ	12cnJ	.
12G-L	12g-L	.
12D-	12d-	.
12FJ	12fJ	[[
=5	=5	=5
12BB-L	12B-<L	<
12F	12f	.
12D-J	12d-J	.
12G-L	12g-L	.
12BB-	12B-<	.
12G-J	12g-J	[[
12AAnL<	12An<L	>
12G-	12g-	.
12CnyJ	12cnyJ	.
12FL	12fL	.
12AA	12A<	.
12FJ	12fJ	]
=6	=6	=6
12BB-L	12B-<L	<
12F	12f	.
12D-J	12d-J	.
12G-L	12g-L	.
12BB--	12B--<	.
12G-J	12g-J	[[
12AA-L	12A-<L	>
12G-	12g-	.
12DnJ	12dnJ	.
12FL	12fL	.
12Cny	12cny	.
12FJ	12fJ	]
!!LO:LB:g=original
=7	=7	=7
*	*	*below
12AA-L<	12A-<L	>
12F-X	12f-X	.
12C-XJ	12c-XJ	.
12DnL<	12dnL	.
12AA-	12A-<	.
12DJ	12dJ	.
12GGnL<	12Gn<L	.
12D	12d	.
12BB-J	12B-<J	]
12FnL<	12fnL	<
12GG	12G<	.
12E-J	12e-J	.
.	.	[
=8	=8	=8
12FFL	12F<L	>
12D-	12d-	.
12GGnJ	12Gn<J	.
12BBnL	12Bn<L	.
12FF	12F<	.
12BBJ	12B<J	.
12EEnL	12En<L	.
12BB	12B<	.
12GGJ	12G<J	]
12D-L	12d-L	>
12EE	12E<	.
12CnJ	12cnJ	]]
=9	=9	=9
*	*	*above
12GG-XL	12G-X<L	>
12E--	12e--	.
12BB--J	12B--<J	.
12CnL	12cn<L	.
12GG-	12G-<	.
12CJ	12c<J	]
12FFL	12F<L	<
12C	12c<	.
12AA-J	12A-<J	.
12E-XL	12e-XL	.
12FF	12F<	.
12D-J	12d-J	.
.	.	[
!!LO:LB:g=original
=10	=10	=10
*	*	*^
*	*	*below	*
12EE-L	12E-<L	>	.
12C-X	12c-X<	.	.
12FFJ	12F<J	.	.
12AAnL	12An<L	.	.
12EE-	12E-<	.	.
12AAJ	12A<J	]	.
12DDnL	12Dn<L	<	.
12AA	12A<	.	.
12FFJ	12F<J	.	.
!	!LO:TX:t=P:problem:'cres' on upper staff	!	!
12BB-L	12B-<L	.	<
12GG-	12G-<	.	.
12BB-J	12B-<J	[	.
*	*	*v	*v
=11	=11	=11
12EE-L	12E-<L	ff
12BB-	12B-<	.
12GG-J	12G-<J	.
12C-L	12c-<L	.
12EE-	12E-<	.
12C-J	12c-<J	.
12DDnL	12Dn<L	.
12C-	12c-<	.
12FFJ	12F<J	.
12BB-L	12B-<L	.
12DD	12D<	.
12BB-J	12B-<J	.
=12	=12	=12
12EE-L	12E-<L	<
12BB-	12B-<	.
12GG-J	12G-<J	.
12C-L	12c-<L	.
12GGn	12Gn<	.
12C-J	12c-<J	[[
12DDnL	12Dn<L	.
12C-	12c-<	.
12GG-XJ	12G-X<J	>
12BB-L	12B-<L	.
12FF	12F<	.
12BB-J	12B-<J	]]
!!LO:LB:g=original
=13	=13	=13
12EE-L	12E-<L	<
12BB-	12B-<	.
12GG-J	12G-<J	.
12C-XL	12c-X<L	.
12EE-	12E-<	.
12C-J	12c-<J	.
12FFL	12F<L	.
12D-	12d-<	.
12AAnJ	12An<J	.
12D-L	12d-<L	.
12FF	12F<	.
12D-J	12d-<J	[
=14	=14	=14
*	*	*above
12GG-L<	12G-<L	<
12D-	12d-<	.
12BB--J	12B--<J	.
12E--L<	12e--L	.
12GG-	12G-<	.
12E--J	12e--J	.
12BB-L<	12B-XL	.
12E--	12e--	.
12GG-J	12G-<J	.
12F-XL	12f-XL	.
12GGn	12Gn<	.
12FnJ	12fnJ	.
.	.	[
=15	=15	=15
12AA-L	12A-<L	.
12C-	12c-<	.
12GG-J	12G-<J	.
12C-L	12c-<L	.
12FF	12F<	.
12C-J	12c-<J	.
12EE-L	12E-<L	.
12AA-	12A-<	.
12DDnJ	12Dn<J	.
12GG-L	12G-<L	.
12EE-	12E-<	.
12GG-J	12G-<J	.
!!LO:LB:g=original
=16	=16	=16
12AAA-L	12AA-<L	.
12GG-	12G-<	.
12EE-J	12E-<J	.
12GG-L	12G-<L	.
12AAA-	12AA-<	.
*	*	*below
12GG-J	12G-<J	>
12BBB-L	12BB-<L	.
12GG-	12G-<	.
12EE-J	12E-<J	.
12GG-L	12G-<L	.
12BBB-	12BB-<	.
12GG-J	12G-<J	]]
=17	=17	=17
12EE-L	12E-<L	>
12BB-	12B-<	.
12EE-J	12E-<J	.
12C-L	12c-<L	.
12EE-	12E-<	.
12D-J	12d-<J	.
12EE-L	12E-<L	.
12BB-	12B-<	.
12EE-J	12E-<J	.
12C-L	12c-<L	.
12EE-	12E-<	.
12D-J	12d-<J	]]
=18	=18	=18
12EE-L<	12E-<L	.
12D-	12d-<	.
12EE-J	12E-<J	.
12C-L<	12c-<L	.
12EE-	12E-<	.
12BB-J	12B-<J	.
12EE-L<	12E-<L	.
12AA-	12A-<	.
12EE-J	12E-<J	.
12BB-L<	12B-<L	.
12EE-	12E-<	.
12BB-J	12B-<J	.
=19	=19	=19
4EEE-\	4E-<	.
4r	4r	.
!LO:TX:b:B:t=Fine.	!	!
2rF	2rb	.
!!LO:PB:g=original
==	==	==
*-	*-	*-
!!title: @{OTL}; @{OPS} @{ONM} publisher: @{PPR}
!!!RDF**kern: > = above
!!!RDF**kern: < = below
!!!RDF**kern: N = linked
!!!RDF**dynam: < = "cres.", fontstyle="italic"
!!!ENC: Mateusz Mrugas
!!!END: 2019-05-25
!!!EED: Jędrzej Mróz
!!!EST: 2019-06-02
!!!EED2: Emilia Ziętek
!!!EST2: 2020-05-02
!!!rism-genre: Prelude
!!!rism-key: E-flat minor
!!!rism-opus: op.  28, no. 14
!!!rism-title: Prelude in E-flat minor op.  28, no. 14
!!!rism-permalink: https://opac.rism.info/search?id=1001013137&View=rism
!!!rism-773a-OPR: 1001013083
!!!rism-parent-permalink: https://opac.rism.info/search?id=1001013083&View=rism
